packages/core/src/svgs/tokens/branded/PYR.svg

<svg width="24" height="24" viewBox="0 0 24 24" fill="none" xmlns="http://www.w3.org/2000/svg">
<path fill-rule="evenodd" clip-rule="evenodd" d="M12.5777 2C12.5973 2.40091 12.3277 3.59227 11.0927 5.15182C10.7577 5.57591 10.3745 6.01364 9.98091 6.46364C8.56228 8.08637 7 9.87274 7 11.7509C7 13.6705 7.88365 14.9391 8.32501 15.3332C8.39091 14.8464 8.82364 13.5441 10.0314 12.2323C10.4027 11.8287 10.9414 11.3854 11.5282 10.9018C13.3278 9.42093 15.5837 7.56364 14.89 5.32C14.89 5.89773 14.4514 7.28819 12.6968 8.22546C10.9418 9.16274 9.8741 10.3028 9.55955 10.756C9.52 10.5373 9.67637 9.74046 10.2391 8.98001C10.3009 8.89683 10.3713 8.80365 10.4496 8.70138C11.3827 7.47546 13.3395 4.90455 12.5777 2ZM11.4227 22C11.4032 21.5991 11.6727 20.4077 12.9078 18.8482C13.2427 18.4242 13.6259 17.9863 14.0196 17.5364C15.4377 15.9137 17 14.1273 17 12.2491C17 10.3296 16.1164 9.06092 15.675 8.66683C15.6091 9.15365 15.1764 10.4559 13.9687 11.7678C13.5973 12.1713 13.0587 12.6146 12.4719 13.0982C10.6723 14.5791 8.41637 16.4364 9.11001 18.68C9.11001 18.1023 9.54864 16.7118 11.3036 15.7745C13.0582 14.8373 14.1264 13.6972 14.4405 13.2442C14.48 13.4627 14.3237 14.2596 13.7609 15.02C13.6991 15.1032 13.6287 15.1964 13.5505 15.2987C12.6173 16.525 10.6609 19.0955 11.4227 22Z" fill="url(#paint0_linear_364_2978)"/>
<defs>
<linearGradient id="paint0_linear_364_2978" x1="12" y1="2" x2="12" y2="22" gradientUnits="userSpaceOnUse">
<stop offset="0.352" stop-color="#FCCA08"/>
<stop offset="1" stop-color="#EE6233"/>
</linearGradient>
</defs>
</svg>

<svg xmlns="http://www.w3.org/2000/svg" width="24" height="24" fill="none" viewBox="0 0 24 24">
    <path fill="url(#PYR__a)" fill-rule="evenodd" d="M12.578 2c.02.4-.25 1.592-1.485 3.152-.335.424-.719.862-1.112 1.312C8.562 8.086 7 9.873 7 11.75c0 1.92.884 3.188 1.325 3.582.066-.487.499-1.789 1.706-3.1.372-.404.91-.848 1.497-1.331 1.8-1.481 4.056-3.338 3.362-5.582 0 .578-.439 1.968-2.193 2.905-1.755.938-2.823 2.078-3.137 2.531-.04-.219.116-1.016.68-1.776q.09-.125.21-.279c.933-1.226 2.89-3.796 2.128-6.701m-1.155 20c-.02-.4.25-1.592 1.485-3.152.335-.424.718-.862 1.112-1.312C15.438 15.914 17 14.127 17 12.25c0-1.92-.884-3.188-1.325-3.582-.066.487-.499 1.789-1.706 3.1-.372.404-.91.848-1.497 1.331-1.8 1.481-4.056 3.338-3.362 5.582 0-.578.439-1.968 2.194-2.905 1.754-.938 2.822-2.078 3.137-2.53.039.218-.117 1.015-.68 1.775l-.21.279c-.934 1.226-2.89 3.797-2.128 6.701" clip-rule="evenodd"/>
    <defs>
        <linearGradient id="PYR__a" x1="12" x2="12" y1="2" y2="22" gradientUnits="userSpaceOnUse">
            <stop offset=".352" stop-color="#FCCA08"/>
            <stop offset="1" stop-color="#EE6233"/>
        </linearGradient>
    </defs>
</svg>
